X: 4077
T: KNOCK HIM DOWN SUSIE
R: Reel.
%R: reel
B: James Kerr "Merry Melodies" v.4 p.11 #77
Z: 2016 John Chambers <jc:trillian.mit.edu>
M: C|
L: 1/8
K: D
B |\
AFDF EFGB | AFDF AddB |\
AFDF EFGA | AFdF (Ad) d :|\
A |\
dfeg fdcA | dfeg faaf |
gefd ecBA | (B/c/d) (AF) AddA |\
dfeg fdcA | dfeg faaf |\
(3gab (3fga (3efd (3cBA | (3Bcd (3AGF (A<d) d |]

%%sep 1 1 500
%%sep 1 1 500

